X:1
T:Fuer ...else
C:Simon Wascher 
F:http://simonwascher.info
Z:abc transcription Simon Wascher
M:2/4
L:1/16
K:G
B2GB d2d2 | B2GB d2d2 | EcBc F2F2 | GB^ABG4 |
B2GB d2d2 | B2GB d2d2 | EcBc F2F2 | G2B2G4 :|
|:\
B2GB d^cd=c | B2GBD4 | FEFG AGAF | G2DGB4 |
B2GB d^cd=c | B2GBD4 | FEFG AGAF | G2B2G4 :|
%%wordsfont Times-Italic 11pt
W:aus Simon Waschers TradArchiv
